src/icons/tally.svg

<svg xmlns="http://www.w3.org/2000/svg"><path d="m38.247 9.237-5.653 2.62v15.871c0 .789-.64 1.428-1.429 1.428h-1.268c-.789 0-1.428-.639-1.428-1.428v-13.959l-3.531 1.636v12.323c0 .789-.64 1.428-1.429 1.428h-1.299c-.789 0-1.429-.639-1.429-1.428v-10.396l-2.468 1.144v9.252c0 .789-.64 1.428-1.429 1.428h-1.299c-.789 0-1.429-.639-1.429-1.428v-7.326l-3.531 1.637v5.689c0 .789-.64 1.428-1.429 1.428h-1.267c-.789 0-1.429-.639-1.429-1.428v-3.777l-1.056.489c-1.509.699-3.44.285-4.311-.929-.872-1.211-.355-2.761 1.155-3.46l4.212-1.952v-16.514c0-.789.64-1.429 1.429-1.429h1.267c.789 0 1.429.64 1.429 1.429v14.602l3.531-1.636v-12.966c0-.789.64-1.429 1.429-1.429h1.299c.789 0 1.429.64 1.429 1.429v11.039l2.468-1.144v-9.895c0-.789.64-1.429 1.429-1.429h1.299c.789 0 1.429.64 1.429 1.429v7.969l3.531-1.637v-6.332c0-.789.639-1.429 1.428-1.429h1.268c.789 0 1.429.64 1.429 1.429v4.421l2.497-1.158c1.51-.7 3.44-.285 4.312.928.871 1.212.354 2.761-1.156 3.461z" fill="#c06d3a" fill-rule="evenodd"/></svg>

<svg
 xmlns="http://www.w3.org/2000/svg"
 xmlns:xlink="http://www.w3.org/1999/xlink">
<path fill-rule="evenodd"  fill="rgb(192, 109, 58)"
 d="M38.247,9.237 L32.594,11.857 L32.594,27.728 C32.594,28.517 31.954,29.156 31.165,29.156 L29.897,29.156 C29.108,29.156 28.469,28.517 28.469,27.728 L28.469,13.769 L24.938,15.405 L24.938,27.728 C24.938,28.517 24.298,29.156 23.509,29.156 L22.210,29.156 C21.421,29.156 20.781,28.517 20.781,27.728 L20.781,17.332 L18.313,18.476 L18.313,27.728 C18.313,28.517 17.673,29.156 16.884,29.156 L15.585,29.156 C14.796,29.156 14.156,28.517 14.156,27.728 L14.156,20.402 L10.625,22.039 L10.625,27.728 C10.625,28.517 9.985,29.156 9.196,29.156 L7.929,29.156 C7.140,29.156 6.500,28.517 6.500,27.728 L6.500,23.951 L5.444,24.440 C3.935,25.139 2.004,24.725 1.133,23.511 C0.261,22.300 0.778,20.750 2.288,20.051 L6.500,18.099 L6.500,1.585 C6.500,0.796 7.140,0.156 7.929,0.156 L9.196,0.156 C9.985,0.156 10.625,0.796 10.625,1.585 L10.625,16.187 L14.156,14.551 L14.156,1.585 C14.156,0.796 14.796,0.156 15.585,0.156 L16.884,0.156 C17.673,0.156 18.313,0.796 18.313,1.585 L18.313,12.624 L20.781,11.480 L20.781,1.585 C20.781,0.796 21.421,0.156 22.210,0.156 L23.509,0.156 C24.298,0.156 24.938,0.796 24.938,1.585 L24.938,9.554 L28.469,7.917 L28.469,1.585 C28.469,0.796 29.108,0.156 29.897,0.156 L31.165,0.156 C31.954,0.156 32.594,0.796 32.594,1.585 L32.594,6.006 L35.091,4.848 C36.601,4.148 38.531,4.563 39.403,5.776 C40.274,6.988 39.757,8.537 38.247,9.237 Z"/>
</svg>
